material/.icons/material/archive-arrow-down-outline.svg

<svg xmlns="http://www.w3.org/2000/svg" viewBox="0 0 24 24"><path d="M20 21H4V10h2v9h12v-9h2v11M3 3h18v6H3V3m2 2v2h14V5m-8.5 6v3H8l4 4 4-4h-2.5v-3"/></svg>

<?xml version="1.0" encoding="UTF-8"?><!DOCTYPE svg PUBLIC "-//W3C//DTD SVG 1.1//EN" "http://www.w3.org/Graphics/SVG/1.1/DTD/svg11.dtd"><svg xmlns="http://www.w3.org/2000/svg" xmlns:xlink="http://www.w3.org/1999/xlink" version="1.1" id="mdi-archive-arrow-down-outline" width="24" height="24" viewBox="0 0 24 24"><path d="M20 21H4V10H6V19H18V10H20V21M3 3H21V9H3V3M5 5V7H19V5M10.5 11V14H8L12 18L16 14H13.5V11" /></svg>
